X: 9
T: No_18_Song_Concerning_the_Water_Used_in_Ceremonies.krn
N: Derived from No_18_Song_Concerning_the_Water_Used_in_Ceremonies.krn
%%abc-version 2.0
%%abcx-abcm2ps-target-version 5.9.1 (29 Sep 2008)
%%abc-creator hum2abc beta
%%abcx-conversion-date 2019/03/15 08:25:35
%%humdrum-veritas 796217010
%%humdrum-veritas-data 1115644721
%%linebreak <none>
%%barnumbers 0
L: 1/8
M: 2/4
K: Eb clef=bass
[K:clef=bass][M:2/4]z2G,2 | 
F2F/E3/ | 
[M:3/4]F/B,3/B,2B,2 | 
[M:2/4]E/B,3/E2 | 
E/B,3/ B,/G,3/ | 
G,2E,2 | 
[M:3/4]B,/G,3/B,2B,D | 
B,/G,3/G,2G,2 | 
B,B,/G,/ B,=A,G,2 | 
[M:2/4]B,B,/G,/ B,=A, | 
[M:3/4]B,/G,3/G,2G,2 | 
E,2E, z B,G, | 
[M:2/4]B,2B,D | 
[M:3/4]B,/G,3/G,2E,2 | 
B,G,B,2B,D | 
B,/G,3/G,2E, z | 
B,G,B,2B,D | 
B,/G,3/G,2E,2 | 
B,G,B,2B,D | 
B,/G,3/G,2E, z | 
B,G,B,2B,D | 
B,G,G,2G,G, | 
B,B,/G,/ B,=A,G,2 | 
[M:2/4]B,B,/G,/ B,A, | 
[M:3/4]B,/G,3/G,2G,2 | 
E,2E, zz2 :|]  



